X:1
T:Ύμνος εις την Ελευθερίαν (WIP)
T:Ύμνος εις την Ελευθερίαν
T:Νικόλαος Μάντζαρος
T:Διονύσιος Σολωμός
T:1873 Version - Transcribed from: https://digital.lib.auth.gr/record/132856/ 
C:Νικόλαος Μάντζαρος
Z:Διονύσιος Σολωμός
%%score { 1 | ( 2 3 ) }
L:1/8
Q:1/4=100
M:3/4
K:G
V:1 treble nm="Piano" snm="Pno."
V:2 bass 
V:3 bass 
V:1
!f! [Gg]4 [Bb]2 | [Ee]4 [Gg]2 | [Cc]2 [A,A]2 [Dd]2 | [Gg]3/2d/4B/4 G z!p! [GB]>[Ac] | %4
 [Bd]7/2 [Ac]/ [GB]>[Ac] | !>![Bd]2 [GB] z [Ac]>[Bd] | [Gce]3 [ce]/[Af]7/4[Af]3/4 | %7
 [Bg]2- [Bg] z [FA]>[GB] | [Ac]7/2 [GB]/ [FA]>[GB] | [Ac]2 [FA]2!f! [Fd]>[Fd] | %10
 [df]2 [df]/>g/[ce]/>f/ [Bd]/>e/[Ac]/>d/ | [GB]2- [GB] z B>B | [Ge]7/2 [Bg]/ [Af]>[F^d] | %13
 [Ge]2 B z B>B | [Ge]7/2 [Bg]/ [Af]>[F^d] | [Ge]2- [Ge] z"_cresc." [GBe]>[GBe] | %16
 [Gd]2 [A=cg]2 [cd][cd] | [Bd]2 [Bdb]2 [Bd]>[Bd] | [cd]2 [Aca]2 [cd][cd] | %19
!<(! [Bd]2!<)! [Bg] z [eg]>[df] | !>![df]2 [ce]2 [ce]>[Bd] | [Bd]2 [Ac]2 [Ace]>[ce] | %22
 [Bd]7/2 [GB]/ [Ac]>[GB] | [Ac]2 [GB]2 [eg]>[df] | !>![Bd]2 [Ac]2 [Ace]>[ce] | %25
 [Bd] !>![Bg]2 f/e/ d/e/c/A/ | G2 z d/>d/ dd | [dc']!>!_e dd/>d/ dd | [db]!>!=e dd/>d/ dd | %29
!ff!{d} d'2 d'/!>(!c'/a/f/ d/!>)!c/A/F/ | G3/2B/4d/4 !>!g z |] %31
V:2
 [G,,G,]4 [B,,B,]2 | [E,,E,]4 [G,,G,]2 | [C,,C,]2 [A,,,A,,]2 [D,,D,]2 | %3
 [G,,G,]3/2B,,/4D,/4 G, z z2 | [G,,G,][G,B,D]/>[G,B,D]/ !/![G,B,D]4 | %5
 [G,,G,][G,B,D]/>[G,B,D]/ !/![G,B,D]4 | C,[G,CE]/>[G,CE]/[G,CE][G,CE]D,[A,CF] | %7
 G,3/2B,/4D/4 G z z2 | [D,,D,][D,F,A,C]/>[D,F,A,C]/ !/![D,F,A,C]4 | %9
 [D,,D,][D,F,A,C]/>[D,F,A,C]/ !/![D,F,A,C]4 | [D,,D,][D,F,A,]/>[D,F,A,]/ !/![D,F,A,]4 | %11
 G,3/2D,/4B,,/4 G,, z z2 | [E,,E,][E,G,B,]/>[E,G,B,]/[E,G,B,][E,G,B,]B,,[F,A,B,] | %13
 [E,,E,][E,G,B,]/>[E,G,B,]/ !/![E,G,B,]4 | [E,,E,][E,G,B,]/>[E,G,B,]/[E,G,B,][E,G,B,]B,,[F,A,B,] | %15
 [E,,E,]3/2G,/4B,/4 E2 [G,B,]>[G,B,] | !//-![F,A,C]3 D,3 | !//-![A,B,]3 D,3 | %18
 !//-![F,A,C]2 D,2 [F,A,]/D,/[F,A,]/D,/ | G,,[B,,D,G,]/>[B,,D,G,]/[B,,D,G,][B,,D,G,]G,,[B,,D,G,] | %20
 C,[E,G,C]/>[E,G,C]/[E,G,C][E,G,C] E,,>[^G,,B,,E,] | %21
 A,,[C,E,A,]/>[C,E,A,]/[C,E,A,][C,E,A,] C,[A,C] | C,[G,B,D]/>[G,B,D]/ [G,B,D][G,B,D] D,[F,A,D] | %23
 G,,[B,,D,G,]/>[B,,D,G,]/[B,,D,G,][B,,D,G,] G,,[B,,D,G,] | %24
 A,,[C,E,A,]/>[C,E,A,]/[C,E,A,][C,E,A,] C,[A,C] | D, [D,G,B,D]2 [D,G,B,D] [D,G,B,D][D,G,B,D] | %26
 [G,,G,][D,G,B,]/>[D,G,B,]/ [D,G,B,][D,G,B,][D,G,B,][D,G,B,] | %27
 [D,,D,][D,F,A,C]/>[D,F,A,C]/ !/![D,F,A,C]4 | [G,,G,] [D,G,B,]/>[D,G,B,]/ !/![D,G,B,]4 | %29
 [D,,D,] [D,F,A,C]/>[D,F,A,C]/ !/![D,F,A,C]4 | [G,B,] z !>![G,,B,,D,G,] z |] %31
V:3
 x6 | x6 | x6 | x6 | x6 | x6 | C,,2 x4 | x6 | x6 | x6 | x6 | x6 | x4 B,,2 | x6 | x4 C,2 | x6 | x6 | %17
 x6 | x6 | x6 | x6 | x4 x2 | x6 | x6 | x6 | x6 | x6 | x6 | x6 | x6 | x4 |] %31

